assets/img/contract.svg

<svg fill="none" height="50" viewBox="0 0 50 50" width="50" xmlns="http://www.w3.org/2000/svg"><rect fill="#fb8332" height="49.7778" rx="11" width="49.7778" x=".111115"/><path d="m14.1111 13.5927v20.2221h14.5185c.2868 0 .5185.2323.5185.5186v2.5925c0 1.1439.9303 2.0741 2.0741 2.0741 1.4296 0 2.5926-1.163 2.5926-2.5926v-23.2217c0-.8343.3163-1.6058.8317-2.1855h-17.9428c-1.4296 0-2.5926 1.163-2.5926 2.5925zm3.6296 4.6667h12.4445c.2867 0 .5185.2323.5185.5185s-.2318.5185-.5185.5185h-12.4445c-.2867 0-.5185-.2323-.5185-.5185s.2318-.5185.5185-.5185zm0 3.1111h12.4445c.2867 0 .5185.2323.5185.5185s-.2318.5185-.5185.5185h-12.4445c-.2867 0-.5185-.2323-.5185-.5185s.2318-.5185.5185-.5185zm0 3.1111h12.4445c.2867 0 .5185.2323.5185.5185s-.2318.5185-.5185.5185h-12.4445c-.2867 0-.5185-.2323-.5185-.5185s.2318-.5185.5185-.5185zm0 3.1111h12.4445c.2867 0 .5185.2323.5185.5185s-.2318.5185-.5185.5185h-12.4445c-.2867 0-.5185-.2323-.5185-.5185s.2318-.5185.5185-.5185zm10.3704 9.3332c0 .796.3008 1.5234.7939 2.0741h-15.8309c-1.1439 0-2.0741-.9302-2.0741-2.0741v-2.074h17.1111zm10.8889-23.8517v2.5926h-4.1481v-2.4811c0-1.12.8208-2.0756 1.8687-2.1757.5916-.057 1.1625.1307 1.6001.5294.4314.392.6793.9515.6793 1.5348z" fill="#fff"/></svg>

<svg width="50" height="50" viewBox="0 0 50 50" fill="none" xmlns="http://www.w3.org/2000/svg">
<rect x="0.111115" width="49.7778" height="49.7778" rx="11" fill="#FB8332"/>
<path d="M14.1111 13.5927V33.8148H28.6296C28.9164 33.8148 29.1481 34.0471 29.1481 34.3334V36.9259C29.1481 38.0698 30.0784 39 31.2222 39C32.6518 39 33.8148 37.837 33.8148 36.4074V13.1857C33.8148 12.3514 34.1311 11.5799 34.6465 11.0002H16.7037C15.2741 11.0002 14.1111 12.1632 14.1111 13.5927ZM17.7407 18.2594H30.1852C30.4719 18.2594 30.7037 18.4917 30.7037 18.7779C30.7037 19.0641 30.4719 19.2964 30.1852 19.2964H17.7407C17.454 19.2964 17.2222 19.0641 17.2222 18.7779C17.2222 18.4917 17.454 18.2594 17.7407 18.2594ZM17.7407 21.3705H30.1852C30.4719 21.3705 30.7037 21.6028 30.7037 21.889C30.7037 22.1752 30.4719 22.4075 30.1852 22.4075H17.7407C17.454 22.4075 17.2222 22.1752 17.2222 21.889C17.2222 21.6028 17.454 21.3705 17.7407 21.3705ZM17.7407 24.4816H30.1852C30.4719 24.4816 30.7037 24.7139 30.7037 25.0001C30.7037 25.2863 30.4719 25.5186 30.1852 25.5186H17.7407C17.454 25.5186 17.2222 25.2863 17.2222 25.0001C17.2222 24.7139 17.454 24.4816 17.7407 24.4816ZM17.7407 27.5927H30.1852C30.4719 27.5927 30.7037 27.825 30.7037 28.1112C30.7037 28.3974 30.4719 28.6297 30.1852 28.6297H17.7407C17.454 28.6297 17.2222 28.3974 17.2222 28.1112C17.2222 27.825 17.454 27.5927 17.7407 27.5927ZM28.1111 36.9259C28.1111 37.7219 28.4119 38.4493 28.905 39H13.0741C11.9302 39 11 38.0698 11 36.9259V34.8519H28.1111V36.9259ZM39 13.0742V15.6668H34.8519V13.1857C34.8519 12.0657 35.6727 11.1101 36.7206 11.01C37.3122 10.953 37.8831 11.1407 38.3207 11.5394C38.7521 11.9314 39 12.4909 39 13.0742Z" fill="white"/>
</svg>
